X:1
T:Title
%%score { 1 | ( 2 3 ) }
L:1/8
Q:1/4=124
M:4/4
K:C
V:1 treble nm="Grand Piano"
V:2 bass 
V:3 bass 
V:1
 [EG]2 [EG]2 [EG]3 [FA] | [EG]4[K:bass] [G,CE]4 | [E,C]2[K:treble] [G,CE]2 [CEG]2 [EGc]2 | e6 z2 | %4
w: Ira~D.~Sankey * * *||||
 d2 c2 B2 A2 | [EG]4 [Ec]4 | B2 A2 G2 ^F2 | G6 z2 | G2 G2 A2 [FB]2 | [Fd]4 [Ec]4 | %10
w: ||||||
 [Ac]2 [Ac]2 [Ad]2 [Ad]2 | [^Ge]6 z2 | [Ge]2 [Fd]2 [Ec]2 B2 | d4 A4 | c2 B2 A2 [FB]2 | [Ec]6 z2 | %16
w: ||||||
 d2 d2 d3 e | d4 B4 | [Bd]2 [Ac]2 [GB]2 [^FA]2 | B6 z2 | d2 d2 d3 e | d4 B4 | %22
w: ||||||
 [Gd]2 [EGc]2 [DGB]2 [C^FA]2 | [B,G]6 z2 | [EG]2 [EG]2 [EG]3 [FA] | [EG]4[K:bass] [G,CE]4 | %26
w: ||||
 [E,C]2[K:treble] [G,CE]2 [CEG]2 [EGc]2 | [Ge]6 z2 | d2 c2 B2 A2 | [CEG]4 [EGc]4 | %30
w: ||||
 [DFc]2 [DFB]2 [CFA]2 [FB]2 | [Ec]6 z2 |] %32
w: ||
V:2
 [C,C]2 [C,C]2 [C,C]3 [C,C] | [C,C]4 C,4 | C,2 C,2 C,2 C,2 | [A,,CG]6 z2 | %4
 [F,A,F]2 [F,A,F]2 [F,B,F]2 [F,CF]2 | [C,C]4 [C,G,]4 | [D,G,D]2 [D,CD]2 [D,B,D]2 [D,A,D]2 | %7
 [G,B,D]6 z2 | [G,B,F]2 [G,B,F]2 [G,CF]2[K:bass] [G,,G,]2 | [C,G,]4 [C,C]4 | %10
 [A,E]2 [A,E]2 [F,D]2 [F,A,]2 | [E,B,]6 z2 | [C,C]2 [C,G,]2 [C,G,]2 [E,^G,D]2 | %13
 [F,A,F]4[K:treble] [F,DF]4 | [G,DF]2 [G,DF]2 [G,CF]2[K:bass] [G,,G,]2 | [C,G,]6 z2 | %16
 [G,B,G]2 [G,B,G]2 [G,B,G]3 [G,CG] | [G,B,G]4 [G,DG]4 | [D,D]2 [D,D]2 [D,D]2 [D,D]2 | [G,DG]6 z2 | %20
 [G,B,G]2 [G,B,G]2 [G,B,G]3 [G,CG] | [G,B,G]4 [G,DG]4 | [D,B,]2 D,2 D,2 D,2 | G,6 z2 | %24
 [C,C]2 [C,C]2 [C,C]3 [C,C] | [C,C]4 C,4 | C,2 C,2 C,2 C,2 | [C,C]6 z2 | %28
 [F,A,F]2 [F,A,F]2 [F,B,F]2 [F,CF]2 | C,4 C,4 | G,2 G,2 G,2 [G,,G,]2 | [C,G,]6 z2 |] %32
V:3
 x8 | x8 | x8 | x8 | x8 | x8 | x8 | x8 | x6[K:bass] x2 | x8 | x8 | x8 | x8 | x4[K:treble] x4 | %14
 x6[K:bass] x2 | x8 | x8 | x8 | x8 | x8 | x8 | x8 | x8 | z2 F,2 E,2 D,2 | x8 | x8 | x8 | x8 | x8 | %29
 x8 | x8 | x8 |] %32

